assets/images/icons/ico-slide-2.svg

<svg width="23" height="28" viewBox="0 0 23 28" fill="none" xmlns="http://www.w3.org/2000/svg">
<path d="M22.102 19.1504L19.5379 16.5864C19.4252 16.4736 19.2431 16.4736 19.1304 16.5864L18.9193 16.7974L17.2341 15.1121C17.2428 15.0514 17.2456 14.9965 17.2456 14.9387V9.02439C17.2456 8.23813 16.6068 7.59641 15.8177 7.59641C15.0285 7.59641 14.3897 8.23524 14.3897 9.02439V12.2677L6.14261 4.02355C5.60784 3.48877 4.74064 3.48877 4.20587 4.02355C3.67109 4.55832 3.67109 5.42552 4.20297 5.9574C4.32727 6.08459 6.50394 8.31329 7.70935 9.5476C7.42028 9.59096 7.13989 9.72104 6.91731 9.94362C6.59644 10.2645 6.46347 10.7039 6.51839 11.123C6.09925 11.0681 5.65987 11.2011 5.33901 11.5219C5.01814 11.8428 4.88517 12.2822 4.94009 12.7013C4.52095 12.6464 4.08157 12.7794 3.7607 13.1002C3.21437 13.6495 3.21437 14.5398 3.7607 15.0861L12.1928 23.5182L11.9817 23.7292C11.9268 23.7841 11.8979 23.8564 11.8979 23.9344C11.8979 24.0125 11.9297 24.0847 11.9817 24.1397L14.5458 26.7037C14.6036 26.7615 14.6787 26.821 14.7539 26.821C14.829 26.821 14.8984 26.7586 14.9562 26.7037L22.0991 19.5609C22.154 19.5059 22.2361 19.4337 22.2361 19.3556C22.2361 19.2776 22.154 19.2053 22.102 19.1504ZM4.17407 14.6785C3.8532 14.3548 3.8532 13.8316 4.17407 13.5107C4.33595 13.3488 4.54696 13.2679 4.75798 13.2679C4.969 13.2679 5.18002 13.3488 5.3419 13.5107C5.45463 13.6234 5.63674 13.6234 5.74948 13.5107C5.80729 13.4529 5.83331 13.3806 5.83331 13.3055C5.83331 13.2303 5.8044 13.158 5.74948 13.1002C5.42572 12.7765 5.42572 12.2533 5.74948 11.9324C6.07323 11.6115 6.59644 11.6086 6.91731 11.9324C7.03004 12.0451 7.21215 12.0451 7.32489 11.9324C7.3827 11.8746 7.40872 11.8023 7.40872 11.7272C7.40872 11.652 7.37981 11.5797 7.32489 11.5219C7.00114 11.1982 7.00114 10.675 7.32489 10.3541C7.64864 10.0332 8.17185 10.0332 8.49272 10.3541C8.60545 10.4668 8.78756 10.4668 8.9003 10.3541C9.01304 10.2414 9.01304 10.0592 8.9003 9.94651C8.79335 9.83956 4.65392 5.59896 4.61056 5.55271C4.30126 5.24341 4.30126 4.74332 4.61056 4.43402C4.91986 4.12472 5.41994 4.12472 5.72924 4.43402L14.4677 13.1725C14.5515 13.2563 14.673 13.2794 14.7828 13.2361C14.8898 13.1927 14.962 13.0858 14.962 12.9701V9.02439C14.962 8.55611 15.3436 8.17454 15.8119 8.17454C16.2802 8.17454 16.6617 8.55611 16.6617 9.02439V14.9358C16.6617 14.9965 16.6531 15.0601 16.6328 15.1353C16.6097 15.2335 16.6386 15.3376 16.708 15.4099L18.5031 17.205L12.6032 23.1106L4.17407 14.6785ZM14.7539 26.0909L12.5975 23.9344L19.3327 17.1992L21.4891 19.3556L14.7539 26.0909Z" fill="#DF0112"/>
<path fill-rule="evenodd" clip-rule="evenodd" d="M6.29141 3.87368C6.29142 3.87369 6.29141 3.87367 6.29141 3.87368L14.178 11.7575V9.02384C14.178 8.11807 14.9114 7.38469 15.8171 7.38469C16.7232 7.38469 17.4563 8.12124 17.4563 9.02384V14.9381C17.4563 14.9695 17.4555 15.0009 17.4536 15.033L18.9188 16.4982L18.9805 16.4365C19.1757 16.2413 19.4915 16.2413 19.6867 16.4365L22.2548 19.0046C22.2577 19.0077 22.2619 19.012 22.2671 19.0173C22.2886 19.0392 22.3261 19.0775 22.3546 19.114C22.3901 19.1595 22.4468 19.244 22.4468 19.3551C22.4468 19.4664 22.3899 19.551 22.3534 19.5972C22.322 19.637 22.2828 19.6753 22.2595 19.6982C22.255 19.7026 22.251 19.7065 22.2479 19.7096L15.1012 26.8563C15.0727 26.8834 15.0288 26.9246 14.9776 26.9585C14.9267 26.9922 14.8495 27.0317 14.7534 27.0317C14.661 27.0317 14.5841 26.9958 14.531 26.9626C14.4764 26.9285 14.4303 26.8868 14.3959 26.8524L11.8279 24.2844C11.742 24.1937 11.6862 24.0706 11.6862 23.9339C11.6862 23.8019 11.7359 23.6753 11.8319 23.5793L11.8936 23.5176L3.61088 15.2349C2.98187 14.6059 2.98243 13.5821 3.61049 12.9508C3.91626 12.645 4.31569 12.4874 4.71684 12.478C4.72623 12.0769 4.88342 11.6778 5.18918 11.3721C5.49495 11.0663 5.89399 10.9091 6.29514 10.8997C6.30453 10.4986 6.46172 10.0995 6.76748 9.79376C6.92674 9.6345 7.11136 9.51665 7.30744 9.43827L4.05224 6.10525C3.43852 5.49053 3.4394 4.49032 4.05604 3.87368C4.67327 3.25645 5.67418 3.25647 6.29141 3.87368ZM5.99279 4.17231C5.54048 3.72 4.80698 3.72 4.35467 4.17231C3.90207 4.62491 3.90265 5.35841 4.35178 5.80753L4.3535 5.80925L8.14816 9.69468L7.74016 9.75588C7.49248 9.79303 7.25446 9.90404 7.06611 10.0924C6.79385 10.3646 6.68044 10.7378 6.72726 11.095L6.76297 11.3675L6.49045 11.3318C6.13318 11.285 5.76007 11.3984 5.48781 11.6707C5.21555 11.9429 5.10214 12.3161 5.14896 12.6733L5.18467 12.9458L4.91215 12.9101C4.55495 12.8633 4.18191 12.9767 3.90967 13.2488C3.44529 13.7159 3.44593 14.4727 3.90951 14.9362L12.4909 23.5176L12.1306 23.878C12.1167 23.8918 12.1086 23.9097 12.1086 23.9339C12.1086 23.9527 12.1159 23.9735 12.1331 23.9923L14.6946 26.5538C14.7162 26.5754 14.7352 26.5916 14.7509 26.6019C14.7659 26.5911 14.7837 26.5753 14.8083 26.5519L21.9492 19.411L21.9721 19.3884C21.9794 19.3812 21.986 19.3747 21.9924 19.3682C21.9972 19.3633 22.0015 19.3588 22.0054 19.3546C22.0013 19.3501 21.9967 19.3453 21.9917 19.34C21.9854 19.3334 21.9791 19.327 21.972 19.3197L21.9712 19.3189C21.967 19.3146 21.9624 19.3099 21.9578 19.3051C21.9553 19.3025 21.9527 19.2999 21.9502 19.2972L19.3881 16.7351C19.3578 16.7049 19.3094 16.7049 19.2792 16.7351L18.9188 17.0955L17.0096 15.1862L17.0245 15.0817C17.0315 15.0329 17.034 14.9883 17.034 14.9381V9.02384C17.034 8.35392 16.4894 7.80701 15.8171 7.80701C15.1446 7.80701 14.6003 8.35131 14.6003 9.02384V12.7768L5.99279 4.17231ZM5.57942 4.58278C5.35259 4.35595 4.9862 4.35595 4.75936 4.58278C4.53253 4.80962 4.53253 5.176 4.75936 5.40284L4.76418 5.40766C4.76411 5.40758 4.76427 5.40791 4.76491 5.40856C4.76645 5.41017 4.7703 5.41415 4.77739 5.42146L5.43472 6.0957C5.83054 6.50141 6.35536 7.03915 6.88217 7.57879C7.93686 8.65916 8.99682 9.74437 9.04911 9.79665C9.24431 9.99185 9.24431 10.3077 9.04911 10.5029C8.85391 10.6981 8.53809 10.6981 8.3429 10.5029C8.10486 10.2648 7.71484 10.2639 7.47302 10.5035C7.233 10.7414 7.23203 11.1304 7.47369 11.3721L7.47752 11.3759C7.56846 11.4716 7.61937 11.5955 7.61937 11.7266C7.61937 11.8529 7.57445 11.9804 7.47369 12.0812C7.2785 12.2764 6.96268 12.2764 6.76748 12.0812L6.76682 12.0805C6.52978 11.8413 6.14029 11.8413 5.89761 12.0818C5.65759 12.3197 5.65662 12.7087 5.89828 12.9504L5.90211 12.9542C5.99306 13.0499 6.04396 13.1738 6.04396 13.3049C6.04396 13.4312 5.99904 13.5587 5.89828 13.6595C5.70308 13.8547 5.38727 13.8547 5.19207 13.6595C5.07107 13.5385 4.91431 13.4785 4.75747 13.4785C4.60064 13.4785 4.44388 13.5385 4.32287 13.6595C4.08493 13.8974 4.08388 14.2872 4.32328 14.5291C4.32337 14.5292 4.3232 14.529 4.32328 14.5291L12.6027 22.8113L18.204 17.2045L16.5551 15.5556C16.4364 15.4319 16.3872 15.2547 16.4268 15.0863L16.4283 15.0798C16.4445 15.0196 16.4501 14.9746 16.4501 14.9352V9.02384C16.4501 8.67217 16.163 8.38515 15.8114 8.38515C15.4597 8.38515 15.1727 8.67217 15.1727 9.02384V12.9696C15.1727 13.1714 15.0481 13.3556 14.8616 13.4312L14.8598 13.4319C14.6744 13.5051 14.4632 13.4666 14.3179 13.3213L5.57942 4.58278ZM4.46074 4.28415C4.8525 3.89239 5.48629 3.89239 5.87805 4.28415L14.6165 13.0226C14.6386 13.0447 14.6698 13.0525 14.7038 13.0395C14.7308 13.0281 14.7503 12.9988 14.7503 12.9696V9.02384C14.7503 8.43893 15.2265 7.96282 15.8114 7.96282C16.3963 7.96282 16.8724 8.43893 16.8724 9.02384V14.9352C16.8724 15.016 16.8609 15.0968 16.8374 15.1852C16.8318 15.2123 16.8399 15.2417 16.8588 15.262L18.8011 17.2043L12.6028 23.4088L4.02422 14.8273L4.02358 14.8266C3.62151 14.4209 3.62055 13.7645 4.02425 13.3608C4.22699 13.1581 4.49227 13.0562 4.75747 13.0562C5.02267 13.0562 5.28795 13.1581 5.4907 13.3608C5.52097 13.3911 5.56938 13.3911 5.59966 13.3608C5.61453 13.346 5.62164 13.329 5.62164 13.3049C5.62164 13.2861 5.6151 13.266 5.59718 13.2465C5.19381 12.8405 5.19367 12.1849 5.60033 11.7819C6.00516 11.3806 6.66209 11.3749 7.06678 11.7832L6.91684 11.9318L7.06611 11.7825C7.09638 11.8128 7.1448 11.8128 7.17507 11.7825C7.18994 11.7677 7.19705 11.7507 7.19705 11.7266C7.19705 11.7078 7.19051 11.6877 7.17259 11.6682C6.76922 11.2622 6.76909 10.6066 7.17574 10.2036C7.58143 9.80149 8.23783 9.80054 8.64152 10.2042C8.67179 10.2345 8.72021 10.2345 8.75048 10.2042C8.78075 10.174 8.78075 10.1255 8.75048 10.0953C8.64414 9.98894 4.60112 5.84717 4.45943 5.70016C4.06897 5.3083 4.06941 4.67548 4.46074 4.28415ZM19.3322 16.9L21.7873 19.3551L14.7534 26.3889L12.2983 23.9339L19.3322 16.9ZM12.8956 23.9339L14.7534 25.7917L21.19 19.3551L19.3322 17.4973L12.8956 23.9339Z" fill="#DF0112"/>
<path fill-rule="evenodd" clip-rule="evenodd" d="M5.61591 9.20893V9.79025C5.48975 9.80003 5.36425 9.80425 5.23999 9.80292C3.97677 9.80292 2.75113 9.30572 1.84346 8.39805C0.938683 7.49328 0.438599 6.28787 0.438599 5.00731C0.438599 3.72675 0.938683 2.52134 1.84346 1.61656C2.74824 0.711785 3.95364 0.2117 5.23421 0.2117C6.51477 0.2117 7.72018 0.711785 8.62495 1.61656C9.70302 2.69746 10.2022 4.22984 9.97339 5.7365L9.40288 5.64142C9.60217 4.31775 9.16105 2.97071 8.21448 2.02415C7.41666 1.22921 6.35867 0.789833 5.23132 0.789833C4.10396 0.789833 3.04598 1.22632 2.24815 2.02415C1.45322 2.82197 1.01384 3.87995 1.01384 5.00731C1.01384 6.13467 1.45033 7.19265 2.24815 7.99047C3.13528 8.88025 4.37417 9.32122 5.61591 9.20893Z" fill="#0000FF"/>
<path fill-rule="evenodd" clip-rule="evenodd" d="M5.23431 0.422323C4.00982 0.422323 2.8581 0.900114 1.99288 1.76534C1.12765 2.63056 0.649862 3.78228 0.649862 5.00677C0.649862 6.23126 1.12765 7.38298 1.99288 8.2482C2.86045 9.11577 4.03217 9.59122 5.24009 9.59122H5.24236C5.29626 9.5918 5.35044 9.59129 5.40485 9.58966V9.4335C4.17966 9.48042 2.97583 9.01875 2.09872 8.13902C1.2613 7.30149 0.802781 6.18983 0.802781 5.00677C0.802781 3.82328 1.26449 2.71178 2.09867 1.87456C2.93623 1.037 4.04826 0.578132 5.23142 0.578132C6.41491 0.578132 7.52641 1.03984 8.36363 1.87402C9.30859 2.81899 9.77392 4.14375 9.63793 5.46596L9.79196 5.49164C9.93522 4.12067 9.45551 2.7478 8.47574 1.76534C7.61052 0.900114 6.4588 0.422323 5.23431 0.422323ZM1.69425 1.46671C2.63858 0.522378 3.89768 0 5.23431 0C6.57094 0 7.83004 0.522378 8.77437 1.46671C9.89994 2.59523 10.4211 4.19498 10.1823 5.76767L10.1501 5.97947L9.16323 5.815L9.19418 5.60944C9.38353 4.3518 8.96426 3.07191 8.06527 2.17292C7.30687 1.41741 6.30251 1.00046 5.23142 1.00046C4.15995 1.00046 3.15581 1.41477 2.39775 2.17274C1.64212 2.93116 1.2251 3.93559 1.2251 5.00677C1.2251 6.07832 1.63949 7.08254 2.39757 7.84062C3.23983 8.68539 4.41694 9.1048 5.59699 8.99809L5.82717 8.97728V9.98514L5.63233 10.0002C5.50046 10.0105 5.36914 10.0149 5.23895 10.0135C3.92083 10.0132 2.64174 9.49432 1.69425 8.54683C0.749917 7.6025 0.227539 6.3434 0.227539 5.00677C0.227539 3.67014 0.749917 2.41104 1.69425 1.46671Z" fill="#0000FF"/>
</svg>

<svg width="23" height="28" fill="none" xmlns="http://www.w3.org/2000/svg"><path d="M22.102 19.15l-2.564-2.564a.288.288 0 00-.408 0l-.21.211-1.686-1.685c.009-.06.012-.116.012-.173V9.024a1.43 1.43 0 00-2.856 0v3.244L6.143 4.024a1.37 1.37 0 00-1.94 1.933l3.506 3.59a1.406 1.406 0 00-1.191 1.575 1.406 1.406 0 00-1.578 1.58 1.406 1.406 0 00-1.18.398 1.408 1.408 0 000 1.986l8.433 8.432-.211.211a.286.286 0 00-.084.205c0 .078.032.15.084.206l2.564 2.564c.058.058.133.117.208.117.075 0 .144-.062.202-.117L22.1 19.56c.055-.055.137-.127.137-.205 0-.078-.082-.15-.134-.206zM4.174 14.68a.829.829 0 01.584-1.411.82.82 0 01.584.243.288.288 0 00.491-.205.296.296 0 00-.084-.206.826.826 0 011.168-1.168.288.288 0 00.492-.205.296.296 0 00-.084-.205.823.823 0 010-1.168.829.829 0 011.168 0 .288.288 0 10.407-.407C8.793 9.841 4.654 5.6 4.61 5.554a.79.79 0 111.12-1.119l8.738 8.738a.29.29 0 00.494-.202V9.024c0-.468.382-.85.85-.85.468 0 .85.382.85.85v5.912c0 .06-.009.124-.03.2a.3.3 0 00.076.274l1.795 1.795-5.9 5.906-8.429-8.433zm10.58 11.412l-2.156-2.157 6.735-6.735 2.156 2.157-6.735 6.735z" fill="#DF0112"/><path fill-rule="evenodd" clip-rule="evenodd" d="M6.291 3.874l7.887 7.883V9.024a1.639 1.639 0 113.278 0v5.914c0 .031 0 .063-.002.095l1.465 1.465.061-.062a.499.499 0 01.707 0l2.568 2.569a.396.396 0 01.192.35.394.394 0 01-.094.242.975.975 0 01-.094.101l-.011.012-7.147 7.146a.922.922 0 01-.123.102.407.407 0 01-.225.074.422.422 0 01-.222-.07.778.778 0 01-.135-.11l-2.568-2.568a.51.51 0 01-.142-.35c0-.132.05-.259.146-.355l.062-.061-8.283-8.283a1.614 1.614 0 011.106-2.757A1.613 1.613 0 016.295 10.9a1.613 1.613 0 011.012-1.462L4.052 6.105a1.58 1.58 0 012.24-2.231zm-.298.298a1.158 1.158 0 00-1.641 1.636l.002.001 3.794 3.886-.408.06a1.195 1.195 0 00-1.013 1.34l.036.272-.273-.035a1.195 1.195 0 00-1.341 1.341l.036.273-.273-.036a1.195 1.195 0 00-1.002.339 1.197 1.197 0 000 1.687l8.58 8.582-.36.36a.075.075 0 00-.021.056c0 .019.007.04.024.058l2.562 2.562a.38.38 0 00.056.048.591.591 0 00.057-.05l7.141-7.141.023-.023.02-.02a.706.706 0 00.013-.013l-.013-.015-.02-.02v-.001l-.014-.014-.008-.008-2.562-2.562a.077.077 0 00-.109 0l-.36.36-1.91-1.909.015-.104a.977.977 0 00.01-.144V9.024a1.218 1.218 0 00-2.434 0v3.753L5.993 4.172zm-.414.41a.58.58 0 10-.82.82l.005.006.013.013.658.675a7150.6 7150.6 0 003.614 3.7.5.5 0 11-.706.707.618.618 0 00-.87 0 .612.612 0 000 .87l.005.003a.507.507 0 01-.004.705.499.499 0 01-.707 0 .615.615 0 00-.869.87l.004.003a.507.507 0 01-.004.705.499.499 0 01-.706 0 .612.612 0 00-.87 0 .618.618 0 00.001.87l8.28 8.282 5.601-5.607-1.649-1.648a.51.51 0 01-.128-.47l.001-.006a.547.547 0 00.022-.145V9.024a.64.64 0 00-.639-.639.64.64 0 00-.638.639v3.946a.5.5 0 01-.311.461h-.002a.5.5 0 01-.542-.11L5.579 4.583zm-1.118-.298a1.002 1.002 0 011.417 0l8.739 8.739c.022.022.053.03.087.017a.079.079 0 00.046-.07V9.024a1.062 1.062 0 012.122-.001v5.912a.96.96 0 01-.035.25.088.088 0 00.022.077l1.942 1.942-6.198 6.205-8.579-8.582a1.04 1.04 0 01.733-1.77c.266 0 .531.101.734.304a.077.077 0 00.13-.056.085.085 0 00-.024-.059 1.037 1.037 0 011.47-1.463l-.15.149.15-.15a.077.077 0 00.13-.055.085.085 0 00-.024-.059 1.035 1.035 0 01.003-1.464 1.04 1.04 0 011.466 0 .077.077 0 10.109-.109C8.643 9.99 4.6 5.847 4.458 5.7a1.001 1.001 0 01.002-1.416zM19.332 16.9l2.455 2.455-7.034 7.034-2.455-2.455 7.034-7.034zm-6.436 7.034l1.857 1.858 6.437-6.437-1.858-1.858-6.436 6.437z" fill="#DF0112"/><path fill-rule="evenodd" clip-rule="evenodd" d="M5.616 9.209v.581a4.803 4.803 0 01-3.772-1.392 4.767 4.767 0 01-1.405-3.39c0-1.281.5-2.487 1.404-3.391A4.767 4.767 0 015.234.212c1.28 0 2.486.5 3.391 1.405a4.815 4.815 0 011.348 4.12l-.57-.096a4.232 4.232 0 00-1.189-3.617A4.199 4.199 0 005.231.79a4.187 4.187 0 00-2.983 1.234 4.199 4.199 0 00-1.234 2.983c0 1.128.436 2.186 1.234 2.983a4.222 4.222 0 003.368 1.22z" fill="#00F"/><path fill-rule="evenodd" clip-rule="evenodd" d="M5.234.422a4.556 4.556 0 00-3.241 1.343A4.556 4.556 0 00.65 5.007c0 1.224.478 2.376 1.343 3.241A4.592 4.592 0 005.24 9.591h.002l.163-.001v-.156a4.431 4.431 0 01-3.306-7.56A4.399 4.399 0 015.23.579a4.41 4.41 0 013.133 1.296 4.444 4.444 0 011.274 3.592l.154.026a4.604 4.604 0 00-1.316-3.727A4.556 4.556 0 005.234.422zm-3.54 1.045A4.978 4.978 0 015.234 0c1.337 0 2.596.522 3.54 1.467a5.027 5.027 0 011.408 4.3l-.032.212-.987-.164.031-.206a4.02 4.02 0 00-1.129-3.436A3.988 3.988 0 005.231 1a3.976 3.976 0 00-2.833 1.173 3.988 3.988 0 00-1.173 2.834c0 1.071.414 2.076 1.173 2.834a4.011 4.011 0 003.199 1.157l.23-.02v1.007L5.632 10a5.014 5.014 0 01-3.938-1.453 4.978 4.978 0 01-1.466-3.54c0-1.337.522-2.596 1.466-3.54z" fill="#00F"/></svg>
